apps/website/src/assets/logos/favicon-light.svg

<svg xmlns="http://www.w3.org/2000/svg" fill="none" viewBox="0 0 256 256">
  <path
    fill="#fff"
    d="M0 122.88c0-43.012 0-64.5181 8.3707-80.9465 7.3631-14.4508 19.112-26.1997 33.5628-33.5628C58.3619 0 79.868 0 122.88 0h10.24c43.012 0 64.518 0 80.946 8.3707 14.451 7.3631 26.2 19.112 33.563 33.5628C256 58.3619 256 79.868 256 122.88v10.24c0 43.012 0 64.518-8.371 80.946-7.363 14.451-19.112 26.2-33.563 33.563C197.638 256 176.132 256 133.12 256h-10.24c-43.012 0-64.5181 0-80.9465-8.371-14.4508-7.363-26.1997-19.112-33.5628-33.563C0 197.638 0 176.132 0 133.12v-10.24Z"
  />
  <path
    fill="#faad00"
    d="M157.617 106.678c2.56-8.2591 8.111-16.1648 13.575-21.4845 1.224-1.1904.362-3.1935-1.387-3.1935-20.006 0-37.444 14.9904-46.624 37.181-5.689-6.699-14.144-11.297-23.781-12.306 2.534-8.333 8.128-16.3208 13.636-21.6815 1.224-1.1904.362-3.1935-1.388-3.1935-23.6603 0-43.718 20.942-50.8033 49.979.0259-.033-.8447 4.786-.8447 7.347C60 157.371 75.8255 172 95.3488 172c13.1102 0 24.5482-6.6 30.6512-16.402C132.103 165.4 143.541 172 156.651 172 176.174 172 192 157.371 192 139.326c0-18.044-15.317-32.181-34.401-32.648h.018Z"
  />
</svg>

<svg width="256" height="256" viewBox="0 0 256 256" fill="none" xmlns="http://www.w3.org/2000/svg">
  <g clip-path="url(#clip0_516_104)">
    <path
      d="M0 122.88C0 79.868 0 58.3619 8.3707 41.9335C15.7338 27.4827 27.4827 15.7338 41.9335 8.3707C58.3619 0 79.868 0 122.88 0H133.12C176.132 0 197.638 0 214.066 8.3707C228.517 15.7338 240.266 27.4827 247.629 41.9335C256 58.3619 256 79.868 256 122.88V133.12C256 176.132 256 197.638 247.629 214.066C240.266 228.517 228.517 240.266 214.066 247.629C197.638 256 176.132 256 133.12 256H122.88C79.868 256 58.3619 256 41.9335 247.629C27.4827 240.266 15.7338 228.517 8.3707 214.066C0 197.638 0 176.132 0 133.12V122.88Z"
      fill="#FEFDF9"
    />
    <path
      d="M157.617 106.678C160.177 98.4189 165.728 90.5132 171.192 85.1935C172.416 84.0031 171.554 82 169.805 82C149.799 82 132.361 96.9904 123.181 119.181C117.492 112.482 109.037 107.884 99.4 106.875C101.934 98.542 107.528 90.5542 113.036 85.1935C114.26 84.0031 113.398 82 111.648 82C87.9877 82 67.93 102.942 60.8447 131.979C60.8706 131.946 60 136.765 60 139.326C60 157.371 75.8255 172 95.3488 172C108.459 172 119.897 165.4 126 155.598C132.103 165.4 143.541 172 156.651 172C176.174 172 192 157.371 192 139.326C192 121.282 176.683 107.145 157.599 106.678H157.617Z"
      fill="#100F0D"
    />
  </g>
  <defs>
    <clipPath id="clip0_516_104">
      <rect width="256" height="256" fill="white" />
    </clipPath>
  </defs>
</svg>
